X: 207
T:Quickstep Clarinet Primo. JaW.206
M:6/8
L:1/8
Q:120
S:James Winder Ms, Lancashire, 1835-41
R:Quickstep
O:England
A:Wyresdale,Lancashire
H:1/8
Z:vmp.Chris Partington, Aug 2004
K:C
G|e2e dcd|c2c cde|fdf ece|d2d def|!
g2g gfe|a2a agf|efe dcd|c3 c2:|!
|:e|dfb dfb|egc' egc'|dfb dfb|egc' egc'|!
afa c'bc'|geg c'ga|gag gfe|e3 d2:|!
|:G|c2e e2g|c2e e2g|d2f B2d|c2e G2G|!
c2e e2g|c2e e2g|d2g B2d|c3 c2:|]
